X: 1
T:Boll Polska 1
R:Hambo
M:3/4
L:1/8
O:Sweden
Z:Carol Turner
K:Gm
g^f/2g/2 d2 B>d | e>d c/2d/2e/2f/2 d2 | \
b>a ga ba/2g/2 | g/2^f/2a/2^f/2 d2 d/2 ^f/2a/2^f/2 |\
g^f/2g/2 d2 B>d | e>d c/2d/2e/2f/2 d2 |\
b>a ga ba/2g/2 | ^fe/2^f/2 g4::\
A|\
B>c d/2c/2d/2e/2 cc | A>B c/2B/2c/2d/2 BB |\
G>A BcdB | A>G ^F/2G/2A/2^F/2 D2 |\
B>c d/2c/2d/2e/2 cc | A>B c/2B/2c/2d/2 BB | G>A Bcdg |^fe/2^f/2 g4:|
